dist/img/wa.svg

<svg width="15" height="14" viewBox="0 0 15 14" fill="none" xmlns="http://www.w3.org/2000/svg">
<path fill-rule="evenodd" clip-rule="evenodd" d="M12.4086 2.02873C11.0922 0.727864 9.35777 0 7.49939 0C3.67424 0 0.561458 3.11278 0.561458 6.93793C0.561458 8.16136 0.886673 9.35382 1.49064 10.4069L0.499512 13.9998L4.18529 13.0396C5.19191 13.5971 6.33791 13.8914 7.49939 13.8914C11.3245 13.8759 14.4373 10.7631 14.4373 6.93793C14.4373 5.09505 13.7095 3.34508 12.4086 2.02873ZM7.49939 12.7144C6.4618 12.7144 5.43969 12.4356 4.55696 11.9091L4.34015 11.7852L2.15656 12.3582L2.74505 10.2366L2.60567 10.0197C2.03267 9.10604 1.72294 8.03747 1.72294 6.95342C1.72294 3.7787 4.30918 1.19246 7.49939 1.19246C9.03255 1.19246 10.4883 1.79643 11.5723 2.88048C12.6564 3.96453 13.2604 5.42026 13.2604 6.96891C13.2604 10.1281 10.6741 12.7144 7.49939 12.7144ZM10.6586 8.39366C10.4883 8.30074 9.63652 7.88261 9.46617 7.83615C9.31131 7.7742 9.18742 7.74323 9.07901 7.92907C8.9706 8.09942 8.6299 8.48658 8.53698 8.61047C8.42858 8.71888 8.33566 8.73436 8.16531 8.65693C7.99496 8.56401 7.43744 8.39366 6.77153 7.78969C6.26047 7.3251 5.90429 6.76758 5.81137 6.58175C5.70296 6.41139 5.79588 6.31848 5.8888 6.22556C5.96623 6.14813 6.05915 6.02423 6.15207 5.91583C6.24499 5.80742 6.26047 5.74548 6.32242 5.62159C6.38437 5.51318 6.35339 5.40477 6.30693 5.31186C6.26047 5.21894 5.91977 4.36718 5.76491 4.02648C5.62553 3.68578 5.48615 3.73224 5.37775 3.73224C5.26934 3.73224 5.16094 3.73224 5.05253 3.73224C4.94413 3.73224 4.7428 3.7787 4.58794 3.94905C4.43307 4.1194 3.98396 4.53753 3.98396 5.38929C3.98396 6.24104 4.60342 7.06183 4.69634 7.18572C4.78926 7.29412 5.91977 9.05958 7.65426 9.80293C8.07239 9.98877 8.3976 10.0817 8.64539 10.1746C9.06352 10.314 9.4352 10.283 9.74493 10.2366C10.0856 10.1901 10.767 9.81842 10.9219 9.41577C11.0613 9.01312 11.0613 8.65693 11.0303 8.59499C10.9529 8.51755 10.829 8.47109 10.6586 8.39366Z" fill="white"/>
</svg>

<svg fill="none" xmlns="http://www.w3.org/2000/svg" viewBox="0 0 15 14"><path fill-rule="evenodd" clip-rule="evenodd" d="M12.409 2.029A6.938 6.938 0 007.499 0 6.946 6.946 0 00.561 6.938a6.97 6.97 0 00.93 3.469L.5 14l3.685-.96a6.855 6.855 0 003.314.851c3.826-.015 6.938-3.128 6.938-6.953a6.965 6.965 0 00-2.028-4.91zm-4.91 10.685a5.756 5.756 0 01-2.942-.805l-.217-.124-2.183.573.588-2.121-.14-.217a5.79 5.79 0 01-.882-3.067c0-3.174 2.586-5.76 5.776-5.76 1.534 0 2.99.603 4.073 1.687a5.75 5.75 0 011.688 4.09c0 3.16-2.586 5.745-5.76 5.745zm3.16-4.32c-.17-.093-1.022-.511-1.193-.558-.155-.062-.279-.093-.387.093-.108.17-.45.558-.542.681-.108.109-.201.124-.372.047-.17-.093-.728-.263-1.393-.867-.512-.465-.868-1.022-.96-1.208-.109-.17-.016-.264.077-.356.077-.078.17-.202.263-.31.093-.109.108-.17.17-.294.062-.109.031-.217-.015-.31-.047-.093-.387-.945-.542-1.286-.14-.34-.279-.294-.387-.294h-.325a.659.659 0 00-.465.217c-.155.17-.604.589-.604 1.44 0 .852.62 1.673.712 1.797.093.108 1.224 1.874 2.958 2.617.418.186.744.279.991.372.419.139.79.108 1.1.062.34-.047 1.022-.419 1.177-.821.14-.403.14-.76.108-.821-.077-.077-.201-.124-.371-.201z" fill="#fff"/></svg>
